actions/22x22-dark/view-calendar-whatsnext.svg

<svg xmlns="http://www.w3.org/2000/svg" viewBox="0 0 22 22">
 <defs id="defs3051">
   <style type="text/css" id="current-color-scheme">
     .ColorScheme-Text {
       color:#f2f2f2;
     }
     </style>
 </defs>
   <path
      style="fill:currentColor;fill-opacity:1;stroke:none"
      d="m4 3c-.5540164 0-1 .4459836-1 1v14c0 .554016.4459836 1 1 1h14c .554016 0 1-.445984 1-1v-14c0-.5540164-.445984-1-1-1zm6.994141 3c .822041 0 1.489001.244617 2.003906.7324219.514905.4787714.773437 1.0920227.773437 1.8417969 0 .3252032-.086177.6559977-.257812.9902343-.171635.3342367-.325436.5722619-.460938.7167969-.126468.135501-.306146.312495-.541015.529297l-.06836.068359c-.551038.496839-.826172.993396-.826171 1.490235v.541015h-1.273438v-.636718c0-.406505.084224-.7539.255859-1.042969.171635-.298103.474599-.645498.908203-1.042969.243903-.2258356.416258-.393552.515626-.5019531.108401-.1174345.211179-.2758741.310546-.4746094.108401-.2077687.164063-.4199166.164063-.6367187 0-.4155375-.137201-.7490173-.408203-1.0019532-.26197-.2529358-.625965-.3789062-1.095703-.3789062-.776875 0-1.3105402.4335726-1.5996098 1.3007812l-1.1660156-.4882812c.1897019-.5149052.5158579-.9763085.9765625-1.3828125.4697381-.4155375 1.0663889-.6230469 1.7890629-.6230469zm-.013672 8.15625c.261969 0 .478755.090816.65039.271484.180669.180669.269532.397455.269532.650391s-.088863.469722-.269532.650391c-.171635.180668-.388421.271484-.65039.271484-.26197 0-.483394-.090816-.664063-.271484-.171635-.180669-.257812-.397455-.257812-.650391s.086177-.469722.257812-.650391c.180669-.180668.402093-.271484.664063-.271484z"
      class="ColorScheme-Text" />
</svg>

<svg xmlns="http://www.w3.org/2000/svg" viewBox="0 0 22 22">
  <defs id="defs3051">
    <style type="text/css" id="current-color-scheme">
      .ColorScheme-Text {
        color:#f2f2f2
      }
      </style>
  </defs>
 <path 
     style="fill:currentColor;fill-opacity:1;stroke:none"      
	 class="ColorScheme-Text"
        d="M 4 3 C 3.4459836 3 3 3.4459836 3 4 L 3 18 C 3 18.554016 3.4459836 19 4 19 L 18 19 C 18.554016 19 19 18.554016 19 18 L 19 4 C 19 3.4459836 18.554016 3 18 3 L 4 3 z M 10.994141 6 C 11.816182 6 12.483142 6.244617 12.998047 6.7324219 C 13.512952 7.2111933 13.771484 7.8244446 13.771484 8.5742188 C 13.771484 8.899422 13.685307 9.2302165 13.513672 9.5644531 C 13.342037 9.8986898 13.188236 10.136715 13.052734 10.28125 C 12.926266 10.416751 12.746588 10.593745 12.511719 10.810547 L 12.443359 10.878906 C 11.892321 11.375745 11.617187 11.872302 11.617188 12.369141 L 11.617188 12.910156 L 10.34375 12.910156 L 10.34375 12.273438 C 10.34375 11.866933 10.427974 11.519538 10.599609 11.230469 C 10.771244 10.932366 11.074208 10.584971 11.507812 10.1875 C 11.751715 9.9616644 11.92407 9.793948 12.023438 9.6855469 C 12.131839 9.5681124 12.234617 9.4096728 12.333984 9.2109375 C 12.442385 9.0031688 12.498047 8.7910209 12.498047 8.5742188 C 12.498047 8.1586813 12.360846 7.8252015 12.089844 7.5722656 C 11.827874 7.3193298 11.463879 7.1933594 10.994141 7.1933594 C 10.217266 7.1933594 9.6836008 7.626932 9.3945312 8.4941406 L 8.2285156 8.0058594 C 8.4182175 7.4909542 8.7443735 7.0295509 9.2050781 6.6230469 C 9.6748162 6.2075094 10.271467 6 10.994141 6 z M 10.980469 14.15625 C 11.242438 14.15625 11.459224 14.247066 11.630859 14.427734 C 11.811528 14.608403 11.900391 14.825189 11.900391 15.078125 C 11.900391 15.331061 11.811528 15.547847 11.630859 15.728516 C 11.459224 15.909184 11.242438 16 10.980469 16 C 10.718499 16 10.497075 15.909184 10.316406 15.728516 C 10.144771 15.547847 10.058594 15.331061 10.058594 15.078125 C 10.058594 14.825189 10.144771 14.608403 10.316406 14.427734 C 10.497075 14.247066 10.718499 14.15625 10.980469 14.15625 z "
     />
</svg>
